X:1
T:Pappus, 88.84.8
T:Pappus, 88.84.8
T:Chorale Book for England, 1863
T:Public Domain Courtesy of the Cyber Hymnal™
C:Chorale Book for England, 1863
Z:Public Domain
Z:Courtesy of the Cyber Hymnal™
%%score ( 1 2 ) ( 3 4 )
L:1/8
Q:1/2=180
M:4/2
K:Bb
V:1 treble 
V:2 treble 
V:3 bass 
V:4 bass 
V:1
 z4 [DG]4 [DG]4 [CG]4 | [D^F]8 [DB]8 | [EA]4 [EG]4 [D^F]8 | z4 [D^F]4 [DF]4 [DF]4 | [DG]8 [C=E]8 | %5
 [C^F]4 [CF]4 [B,G]8 | z4 [DA]4 [DA]4 [=Ec]4 | [FA]4 F4 [FG]4 [EA]4 | !fermata![DB]8 z4 [DB]4 | %9
 [EA]4 [CG]4 [D^F]8 | z4 [D^F]4 [DF]4 [DF]4 | [DG]8 [C=E]8 | [C^F]4 [CF]4 [B,G]8 |] %13
V:2
 x16 | x16 | x16 | x16 | x16 | x16 | x16 | x4 F4 x8 | x16 | x16 | x16 | x16 | x16 |] %13
V:3
 z4 [G,B,]4 [G,B,]4 [E,G,]4 | [D,A,]8 G,8 | [C,C]4 [C,B,]4 [D,A,]8 | z4 [D,A,]4 [D,A,]4 [C,A,]4 | %4
 [B,,G,]8 [C,G,]8 | [A,,A,]4 [D,A,]4 [G,,G,]8 | z4 [D,^F,]4 [D,F,]4 [C,G,]4 | %7
 [F,A,]4 [D,B,]4 [E,B,]4 [C,C]4 | !fermata![G,B,]8 z4 G,4 | [C,C]4 [E,G,]4 [D,A,]8 | %10
 z4 [D,A,]4 [D,A,]4 [D,A,]4 | [B,,B,]8 [C,G,]8 | [A,,A,]4 [D,A,]4 [G,,G,]8 |] %13
V:4
 x16 | x8 G,8 | x16 | x16 | x16 | x16 | x16 | x16 | x12 G,4 | x16 | x16 | x16 | x16 |] %13

